X:16
T:Mason's Apron
M:C|
R:reel
C:Traditional
K:A
eg | aA A2 ABAF | EFAB cABc | dB B2 BcBA | Bcde fefg |
aA A2ABAF | EFAB cABc | dcde fega | AAcB A2 :|
|: ee | (=c^c)ec fe e2 | (=c^c)ec fe e2 | d2 fd gdfd | d2 fd gdfd |
(=c^c)ec fe e2 | (=c^c)ec fe e2 | dcde fega | AAcB A2 :|

